X: 23739
T: Little Beggarman, The
R: reel
M: 4/4
K: Amixolydian
|:AF|E2A2 ABcd|efec d2cd|e2AG ABcA|BGEF G2AF|
E2AG ABcd|efec d2cd|e2ag afed|c2A2 A2:|
|:ef|g2ef g2ef|gfec d2cd|e2AG ABcA|BGEF G2AF|
E2AG ABcd|efec d2cd|e2ag afed|c2A2 A2:|

